X: 23592
T: Lilies In The Field, The
R: reel
M: 4/4
K: Dmajor
Addc A2 AB|~c3d efdB|Addc AFBd|cAGE FDDB|
Addc A2 AB|~c3d efdB|AFdB AFBd|cAGE FDFA||
d2 fd Adfd|B/c/d ef gafe|defd Adfd|ceag fdec|
dafd Adfd|B/c/d ef (3gag fg|af g/f/e fdcd|eaag fedB||

